storage/app/icons/phosphoricons/light/textbox-light.svg

<svg xmlns="http://www.w3.org/2000/svg" fill="currentColor" viewBox="0 0 256 256"><path d="M112 42a6 6 0 0 0-6 6v18H24a14 14 0 0 0-14 14v96a14 14 0 0 0 14 14h82v18a6 6 0 0 0 12 0V48a6 6 0 0 0-6-6M24 178a2 2 0 0 1-2-2V80a2 2 0 0 1 2-2h82v100Zm222-98v96a14 14 0 0 1-14 14h-88a6 6 0 0 1 0-12h88a2 2 0 0 0 2-2V80a2 2 0 0 0-2-2h-88a6 6 0 0 1 0-12h88a14 14 0 0 1 14 14M86 112a6 6 0 0 1-6 6H70v26a6 6 0 0 1-12 0v-26H48a6 6 0 0 1 0-12h32a6 6 0 0 1 6 6"/></svg>

<svg xmlns="http://www.w3.org/2000/svg" viewBox="0 0 256 256" fill="currentColor"><path d="M112,42a6,6,0,0,0-6,6V66H24A14,14,0,0,0,10,80v96a14,14,0,0,0,14,14h82v18a6,6,0,0,0,12,0V48A6,6,0,0,0,112,42ZM24,178a2,2,0,0,1-2-2V80a2,2,0,0,1,2-2h82V178ZM246,80v96a14,14,0,0,1-14,14H144a6,6,0,0,1,0-12h88a2,2,0,0,0,2-2V80a2,2,0,0,0-2-2H144a6,6,0,0,1,0-12h88A14,14,0,0,1,246,80ZM86,112a6,6,0,0,1-6,6H70v26a6,6,0,0,1-12,0V118H48a6,6,0,0,1,0-12H80A6,6,0,0,1,86,112Z"/></svg>
